X: 164
T: The Spey In Spate
C: James Scott Skinner
M: 4/4
L: 1/8
Z: Nigel Gatherer; small changes by John Chambers
%%staffsep 40
K: D
A,2 | "D"~D2FD A,DFA | dcBA ^GAFD | "Em"~E2GE B,EGB | "A7"gecA GECA, || "D"~D2FD A,DFA | dDcD BDAf |
| "Em" gefd ecdB |1 "A7"AFGE "D"D2 :|2 "A7"AFGE "D"DABc |:"D"~d2fd AdFA | DFAd fagf | "Em"~e2ge BeGB |
| "A7"CEAc egfe || "D"~d2fd AdFA | DFAd fagf | "Em" gefd ecdB |1 "A7"AFGE "D"DABc :|2 "A7"AFGE "D"D2 |]

%%sep 1 1 500

